X: 27
T: Lo Spagnoletto
P: AABBCC x 7
K: F major
M: 4/4
L: 1/8
P: A
 B2 | "Gm"B2AB "F"c2Bc | "Bb"d2d2 B2d2 | "F"c2B2 c2c2 | "Bb"B4 B2 :: 
P: B
d2 | "F"c2B2 A2"C"G2 | "D"^F4 D2dc | \
"Gm"B2AG "D"^F2A2 | "G"G6 :: 
P: C
FG | "F"A4 F2AB | "F"c4 A2dc | "Gm"B2AG "D"^F2A2 | "G"G6 :| 

